X: 7
T: Niczem Sybir, niczem knuty
C: Bolesław Jan Ćwiklicz
%%abc-version 2.0
%%abcx-abcm2ps-target-version 5.9.1 (29 Sep 2008)
%%abc-creator hum2abc beta
%%abcx-conversion-date 2021/10/04 07:38:41
%%abc-edited-by Marcin Jachim
%%abc-edited-by Leszek Kubiak
%%abcx-initial-encoding-date 2021-08-11
%%humdrum-veritas 2791767286
%%humdrum-veritas-data 302114015
%%linebreak <none>
%%barnumbers 0
L: 1/4
M: 2/2
N: Derived from pl-kozmzk--mzk-m-137--005_cwiklicz-boleslaw-jan-niczem-sybir-niczem-knuty.krn
%%staves {1 2}
V: 1 clef=treble
V: 2 clef=bass
K: F
[V:1] d2d2 & A2B2 | 
[V:2] F,2G,2 & D,2G,,2 | 
[V:1] ^c2A2 & A2A2 | 
[V:2] E,2E,2 & A,,2^C,2 | 
[V:1] d2d2 & A2B2 | 
[V:2] F,2F,2 & D,=C,B,,A,, | 
[V:1] d2^c2 & B2A2 | 
[V:2] G,F,E,2 & G,,2A,,2 | 
[V:1] d2e2 & A2=c2 | 
[V:2] F,2G,2 & D,2C,2 | 
[V:1] f3g & d3d | 
[V:2] B,3B, & B,,2A,,G,, | 
[V:1] a2gf & d2d2 | 
[V:2] A,2=B,2 & F,,2G,,2 | 
[V:1] e4 & ^c4 | 
[V:2] ^C4 & A,,4 | 
[V:1] d2A2 & A2G2 | 
[V:2] ^F,2E,2 & D,2^C,2 | 
[V:1] =B2^F2 & ^F2E2 | 
[V:2] D,2^C,2 & =B,,2^A,,2 | 
[V:1] G2A=B & E2^FG | 
[V:2] D,3D, & =B,,2A,,G,, | 
[V:1] =B2A2 & G2E2 | 
[V:2] E,D,^C,2 & E,,2A,,2 | 
[V:1] =c2=F2 & E2=F2 | 
[V:2] =C,2C,2 & B,,2A,,2 | 
[V:1] A2A2 & E2D2 | 
[V:2] ^C,2D,2 & G,,2F,,2 | 
[V:1] B2AG & G2FE | 
[V:2] D,3D, & G,,2A,,B,, | 
[V:1] A4 & E4 | 
[V:2] ^C,4 & A,,4 | 
[V:1] A3A & A3A | 
[V:2] F,2E,D, & D,2^C,=B,, | 
[V:1] A4 & A4 | 
[V:2] E,4 & ^C,4 | 
[V:1] d2d2 & A=cB2 | 
[V:2] F,2G,F, & D,2G,,2 | 
[V:1] ^c2A2 & A2A2 | 
[V:2] E,G,F,E, & A,,2=B,,^C, | 
[V:1] d2d2 & A2B2 | 
[V:2] F,2F,2 & D,=C,B,,A,, | 
[V:1] d2^c2 & B2AG | 
[V:2] G,F,E,2 & G,,2A,,2 | 
[V:1] d4 & F2G2 | 
[V:2] D,2E,2 & B,,4 | 
[V:1] ^c4 & A4 | 
[V:2] E,4 & A,,4 | 
[V:1] d2e2 & ABcG | 
[V:2] F,2G,2 & D,2C,2 | 
[V:1] f3g & dcd2 | 
[V:2] B,3B, & B,,2A,,G,, | 
[V:1] a2gf & d2d2 | 
[V:2] A,B,=B,2 & F,,2G,,2 | 
[V:1] e4 & ^c4 | 
[V:2] ^C4 & A,,4 | 
[V:1] d2A2 & A2G2 | 
[V:2] ^F,G,F,E, & D,2^C,2 | 
[V:1] =B2^F2 & ^F2E2 | 
[V:2] D,E,D,^C, & =B,,2^A,,2 | 
[V:1] G2A=B & E2FG | 
[V:2] ^C,D,C,D, & =B,,2A,,G,, | 
[V:1] =B2A2 & G2^FE | 
[V:2] E,D,^C,2 & E,,2A,,2 | 
[V:1] =c2=F2 & E2=F2 | 
[V:2] =C,2C,2 & _B,,A,,^G,,A,, | 
[V:1] A2A2 & E2D2 | 
[V:2] ^C,2D,2 & =G,,F,,E,,F,, | 
[V:1] B2AG & G2FE | 
[V:2] D,3D, & G,,2A,,B,, | 
[V:1] !fermata!A4 & ^F4 | 
[V:2] D,4 & !fermata!D,,4 | 
[V:1] =B2AG & G2^FE | 
[V:2] D,3D, & G,,2A,,=B,, | 
[V:1] !fermata!A4 & =F4 |]  
[V:2] D,4 & D,,4 |]  


